X:1
T:The Savior Is My All in All
T:The Savior Is My All in All
T:Peter Philip Bilhorn
T:Peter Philip Bilhorn, 1888
T:Public Domain Courtesy of the Cyber Hymnal™
C:Peter Philip Bilhorn
Z:Public Domain
Z:Courtesy of the Cyber Hymnal™
%%score ( 1 2 ) ( 3 4 )
L:1/8
Q:1/4=105
M:6/8
K:Bb
V:1 treble 
V:2 treble 
V:3 bass 
V:4 bass 
V:1
 [DF] | [DF]2 [DF] [DF]2 [DF] | (FG)[EA] [DB]2 [DB] | [Fc]2 [F=B] [Ec]2 [EF] | ([Fd]3 [DB]2) [DF] | %5
w: 1.~The|Sav- ior is my|all * in all, He|is my cons- tant|theme! * By|
w: 2.~His|Spir- it gives sweet|peace * with- in, And|bids all cares de-|part! * He|
w: 3.~And|what- so- ev- er|I * may ask, To|glo- ri- fy His|name, * The|
w: 4.~Oh,|praise the Lord, my|soul, * re- joice, Gives|thanks un- to thy|God! * Who|
 [DF]2 [DF] [DF]2 [DF] | (FG)[EA] [DB]2 [FB] | [Gc]2"^riten." [Gc] [Fd]2 [Ec] | [DB]3- [DB]2 z || %9
w: sim- ply trust- ing|in * His word He|keeps me pure and|clean. *|
w: fills my soul with|right- * eous- ness, And|pu- ri- fies the|heart. *|
w: Fa- ther free- ly|gives * to me, Since|Christ the Sav- ior|came. *|
w: took thee in thy|sin- * ful- ness, And|cleansed thee by His|blood! *|
"^Refrain" [Ge]3 [EG]2 [Ge] | [Fd]3 [DF]3 | [EA]2 [EA] ([EA][DB])[Ec] | [Fd]3 [DB]3 | %13
w: ||||
w: Glo- ry! oh,|glo- ry!|Je- sus hath * re-|deemed me;|
w: ||||
w: ||||
 [Ge]3 [EG]2 [Ge] | [Fd]3 [DF]2 [Fd] | [Ec]2"^riten." [=EB] [Fd]2 [_Ec] | B3- [DB]2 |] %17
w: ||||
w: Glo- ry! oh,|glo- ry! He|washed my sins a-|way, way!|
w: ||||
w: ||||
V:2
 x | x6 | E2 x4 | x6 | x6 | x6 | E2 x4 | x6 | x6 || x6 | x6 | x6 | x6 | x6 | x6 | x6 | D2 E x2 |] %17
V:3
 [B,,B,] | [B,,B,]2 [B,,B,] [B,,B,]2 [B,,B,] | (A,B,)[F,C] [B,,B,]2 [B,,B,] | %3
 [F,A,]2 [F,^G,] [F,A,]2 [F,A,] | [B,,B,]3- [B,,B,]2 [B,,B,] | [B,,B,]2 [B,,B,] [B,,B,]2 [B,,B,] | %6
 (A,B,)[F,C] [B,,B,]2 [D,B,] | [E,B,]2 [=E,B,] [F,B,]2 [F,A,] | [B,,B,]3- [B,,B,]2 z || %9
 [E,B,]3 [E,B,]2 [E,B,] | [B,,B,]3 [B,,B,]3 | [F,C]2 [F,C] (CB,)[F,A,] | [B,,B,]3 [B,,B,]3 | %13
 [E,B,]3 [E,B,]2 [E,B,] | [B,,B,]3 [B,,B,]2 [B,,B,] | [F,A,]2 [G,C] [F,B,]2 [F,A,] | %16
 (B,2 G, [B,,F,]2) |] %17
V:4
 x | x6 | F,2 x4 | x6 | x6 | x6 | F,2 x4 | x6 | x6 || x6 | x6 | x3 F,2 x | x6 | x6 | x6 | x6 | %16
 B,,3- x2 |] %17

